P3
16 16
9
9 7 3 9 7 3 9 7 3 9 7 3 9 7 3 9 7 3 9 7 3 9 7 3 9 7 3 9 7 3 9 7 3 9 7 3 9 7 3 9 7 3 9 7 3 9 7 3
9 7 3 9 7 3 9 7 3 9 7 3 9 7 3 9 7 3 9 7 3 9 7 3 9 7 3 9 7 3 9 7 3 9 7 3 9 7 3 9 7 3 9 7 3 9 7 3
9 7 3 9 7 3 9 7 3 9 7 3 9 7 3 9 7 3 9 7 3 9 7 3 9 7 3 9 7 3 9 7 3 9 7 3 9 7 3 9 7 3 9 7 3 9 7 3
9 7 3 9 7 3 9 7 3 9 7 3 9 7 3 9 7 3 9 7 3 9 7 3 9 7 3 9 7 3 9 7 3 9 7 3 9 7 3 9 7 3 9 7 3 9 7 3
9 7 3 9 7 3 9 7 3 0 0 0 0 0 0 9 7 3 9 7 3 9 7 3 9 7 3 9 7 3 9 7 3 0 0 0 0 0 0 9 7 3 9 7 3 9 7 3
9 7 3 9 7 3 9 7 3 0 0 0 0 0 0 9 7 3 9 7 3 9 7 3 9 7 3 9 7 3 9 7 3 0 0 0 0 0 0 9 7 3 9 7 3 9 7 3
9 7 3 9 7 3 9 7 3 9 7 3 0 0 0 0 0 0 9 7 3 9 7 3 9 7 3 9 7 3 0 0 0 0 0 0 9 7 3 9 7 3 9 7 3 9 7 3
9 7 3 9 7 3 9 7 3 9 7 3 0 0 0 0 0 0 9 7 3 0 0 0 0 0 0 9 7 3 0 0 0 0 0 0 9 7 3 9 7 3 9 7 3 9 7 3
9 7 3 9 7 3 9 7 3 9 7 3 9 7 3 0 0 0 0 0 0 0 0 0 0 0 0 0 0 0 0 0 0 9 7 3 9 7 3 9 7 3 9 7 3 9 7 3
9 7 3 9 7 3 9 7 3 9 7 3 9 7 3 0 0 0 0 0 0 0 0 0 0 0 0 0 0 0 0 0 0 9 7 3 9 7 3 9 7 3 9 7 3 9 7 3
9 7 3 9 7 3 9 7 3 9 7 3 9 7 3 9 7 3 0 0 0 0 0 0 0 0 0 0 0 0 9 7 3 9 7 3 9 7 3 9 7 3 9 7 3 9 7 3
9 7 3 9 7 3 9 7 3 9 7 3 9 7 3 9 7 3 0 0 0 0 0 0 0 0 0 0 0 0 9 7 3 9 7 3 9 7 3 9 7 3 9 7 3 9 7 3
9 7 3 9 7 3 9 7 3 9 7 3 9 7 3 9 7 3 9 7 3 0 0 0 0 0 0 9 7 3 9 7 3 9 7 3 9 7 3 9 7 3 9 7 3 9 7 3
9 7 3 9 7 3 9 7 3 9 7 3 9 7 3 9 7 3 9 7 3 9 7 3 9 7 3 9 7 3 9 7 3 9 7 3 9 7 3 9 7 3 9 7 3 9 7 3
9 7 3 9 7 3 9 7 3 9 7 3 9 7 3 9 7 3 9 7 3 9 7 3 9 7 3 9 7 3 9 7 3 9 7 3 9 7 3 9 7 3 9 7 3 9 7 3
9 7 3 9 7 3 9 7 3 9 7 3 9 7 3 9 7 3 9 7 3 9 7 3 9 7 3 9 7 3 9 7 3 9 7 3 9 7 3 9 7 3 9 7 3 9 7 3
